X:1
T:Soldiers Marching
T:Soldiers Marching
T:Album for the Young
T:R. Schumann, Op. 68, No. 2
C:R. Schumann, Op. 68, No. 2
%%score { 1 | 2 }
L:1/8
Q:1/4=112
M:2/4
K:G
V:1 treble nm="Piano" snm="Pno."
V:2 bass 
V:1
!f!"^Munter und straff" !2![GB]>[Gc] [Gd] z | [Ge] z [Gd] z | !2!!5![Fc] z !1!!4![GB] z | %3
 !2!!3![FA] z !1!G z |!f! !2![GB]>[Gc] [Gd] z | [Ge] z [Gd] z | !2!!4![eg] z [df] z | %7
 !3!!5![^ce] z !4!d z |!f! [GB]>[Gc] [Gd] z | [Ge] z [Gd] z | [Fc] z [GB] z | [FA] z G z | %12
!f! [GB]>[Gc] [Gd] z | [Ge] z [Gd] z | [eg] z [df] z | [^ce] z d z |:!f! !1!D>E F2 | E2 D2 | %18
 !1!!5![Fe] z !1!!5![Gd] z | !2!!4![Ac] z [GB] z |!f! !5![DFA]>E F2 | E2 D2 | !2!!4![Ac] z [GB] z | %23
 !2!!3![FA] z !1!!4![GB] z |!f! [GB]>[Gc] [Gd] z | [Ge] z [Gd] z | [Fc] z [GB] z | [FA] z G z | %28
!f! !1!C>D E2 | D2 C2 | D2!f! [Adf] z |!f! [Bdg] z z2 :| %32
V:2
 !4!G,>A, B, z | C z B, z | A, z G, z | [D,C] z !3!!2![G,B,] z | G,>A, B, z | C z !4!B, z | %6
 ^C z D z | [A,G] z !3!!2![DF] z | G,>A, B, z | C z B, z | A, z G, z | [D,C] z [G,B,] z | %12
 G,>A, B, z | C z B, z | ^C z D z | [A,G] z [DF] z |: !5!D,>E, F,2 | E,2 D,2 | !1!C z B, z | %19
 !4![F,D] z [G,D] z | !5!D,>E, F,2 | E,2 D,2 | !4![F,D] z [G,D] z | [D,D] z [G,D] z | G,>A, B, z | %25
 C z B, z | A, z G, z | [D,C] z [G,B,] z |!f! !5!C,>D, E,2 | D,2 C,2 | D,2 D z | G, z z2 :| %32

